!!!COM: Bach, Johann Sebastian
!!!OPR: Joh. Seb. Bachs vierstimmige Choralges‰nge
!!!XEN: Four-part Chorales
!!!OTL: 90. Hilf, Gott, lass mir's gelingen
!!!SCT: BWV 343
!!!SCA: Thematisch-systematisches Verzeichnis der musikalischen Werke Johann Sebastian Bach: Bach-Werke-Verzeichnis (Schmieder)
!!!YOR: Bach Gesellschaft Edition xxxix
!!!ENC: Steven Rasmussen
!!!CDT: 1685/3//-1750/7/28/
!!!OCY: Deutschland
!!!YEC: Copyright (c) 1994, 2000 Center for Computer Assisted Research in the Humanities
!!!YEM: Rights to all derivative editions reserved
!!!YEN: United States of America
**kern	**silbe	**kern	**silbe	**kern	**silbe	**kern	**silbe
*I:[SOPRANO]	*I:[SOPRANO]	*I:[ALTO]	*I:[ALTO]	*I:[TENORE]	*I:[TENORE]	*I:[BASSO]	*I:[BASSO]
*>[A,A,B]	*	*>[A,A,B]	*	*>[A,A,B]	*	*>[A,A,B]	*
*>A	*	*>A	*	*>A	*	*>A	*
*clefG2	*	*clefG2	*	*clefGv2	*	*clefF4	*
*k[b-]	*	*k[b-]	*	*k[b-]	*	*k[b-]	*
*d:	*	*d:	*	*d:	*	*d:	*
*M3/4	*	*M3/4	*	*M3/4	*	*M3/4	*
4g	Hilf,die	8dL	.	4B-	.	4G	.
.	.	8eJ	.	.	.	.	.
=1	=1	=1	=1	=1	=1	=1	=1
2a	Gott,Wort'	2f	.	2c	.	2F	.
4g	lassin	8fL	.	8.cL	.	4C	.
.	.	8eJ	.	.	.	.	.
.	.	.	.	16B-Jk	.	.	.
=2	=2	=2	=2	=2	=2	=2	=2
2f	mir'sReim'	4d	.	(4A	.	2D	.
.	.	4A	.	4.F)	.	.	.
4d	ge-zu	4B-	.	.	.	4BB-	.
.	.	.	.	8G	.	.	.
=3	=3	=3	=3	=3	=3	=3	=3
2.f	-lin-brin-	8cL	.	2A	.	2AA	.
.	.	8e-	.	.	.	.	.
.	.	8d	.	.	.	.	.
.	.	8cJ	.	.	.	.	.
.	.	4Bn	.	8GL	.	4D	.
.	.	.	.	8FJ	.	.	.
=4	=4	=4	=4	=4	=4	=4	=4
2g;	-gen,-gen,	2e;	.	2c;	.	2C;	.
4a	duzu	8eL	duzu	4c	.	4AA	.
.	.	8f#J	.	.	.	.	.
=5	=5	=5	=5	=5	=5	=5	=5
2b-	ed-Lob	8gL	ed-Lob	4.d	.	2GG	.
.	.	8f#J	.	.	.	.	.
.	.	[2g	.	.	.	.	.
.	.	.	.	8cL	.	.	.
4dd	-lerdem	.	.	8B-	.	4BB-	.
.	.	.	.	8AJ	.	.	.
=6	=6	=6	=6	=6	=6	=6	=6
2cc	Sch√∂-Na-	4.g]	.	8GL	.	2E-	.
.	.	.	.	8F#J	.	.	.
.	.	.	.	4G	.	.	.
.	.	8f#	.	.	.	.	.
4b-	-pfer-men	4g	-lerdem	4d	.	4D	.
=7	=7	=7	=7	=7	=7	=7	=7
2.a	mein,dein,	2g	Sch√∂-Na-	4e-	.	4C	.
.	.	.	.	8dL	.	4D	.
.	.	.	.	8AJ	.	.	.
.	.	4f#	-pfer-men	8dL	.	4DD	.
.	.	.	.	8cJ	.	.	.
=8	=8	=8	=8	=8	=8	=8	=8
2g;	.	2d;	mein,dein,	2B-;	.	2GG;	.
=:|!	=:|!	=:|!	=:|!	=:|!	=:|!	=:|!	=:|!
*>B	*	*>B	*	*>B	*	*>B	*
4cc	dass	[4g	dass	8cL	dass	4E	.
.	.	.	.	8B-J	.	.	.
=9	=9	=9	=9	=9	=9	=9	=9
2cc	ich	8gL]	.	4A	ich	4F	.
.	.	8fJ	.	.	.	.	.
.	.	8fL	ich	4B-	.	4G	.
.	.	8eJ	.	.	.	.	.
4cc	mag	[4f	mag	[4c	mag	4A	mag
=10	=10	=10	=10	=10	=10	=10	=10
2dd	fr√∂h-	8fL]	.	4c]	.	2B-	fr√∂h-
.	.	8eJ	.	.	.	.	.
.	.	8fL	fr√∂h-	4B-	fr√∂h-	.	.
.	.	8gJ	.	.	.	.	.
4cc	-lich	8aL	-lich	4c	-lich	8FL	-lich
.	.	8gJ	.	.	.	8EJ	.
=11	=11	=11	=11	=11	=11	=11	=11
4b-	he-	2f	he-	2d	he-	8DL	he-
.	.	.	.	.	.	8CJ	.
4a	.	.	.	.	.	4BB-	.
4g	-ben	8fL	-ben	8GL	-ben	4C	-ben
.	.	8eJ	.	8cJ	.	.	.
=12	=12	=12	=12	=12	=12	=12	=12
2f;	an,	2c;	.	2A;	.	2FF;	.
4f	von	4d	.	8B-L	.	8BB-L	.
.	.	.	.	8cJ	.	8AAJ	.
=13	=13	=13	=13	=13	=13	=13	=13
2b-	dei-	2g	.	8dL	.	4GG	.
.	.	.	.	8B-J	.	.	.
.	.	.	.	4.e-	.	4G	.
4a	-nem	4a	.	.	.	4F#	.
.	.	.	.	8d	.	.	.
=14	=14	=14	=14	=14	=14	=14	=14
2b-	Wort	8aL	.	2d	.	4G	.
.	.	8dJ	.	.	.	.	.
.	.	4g	.	.	.	8FL	.
.	.	.	.	.	.	8E-J	.
4cc	zu	4a	.	4e-	.	8DL	.
.	.	.	.	.	.	8CJ	.
=15	=15	=15	=15	=15	=15	=15	=15
2dd	sin-	8b-L	.	4f	.	4BB-	.
.	.	8aJ	.	.	.	.	.
.	.	4.g	.	8e-L	.	4B-	.
.	.	.	.	8dJ	.	.	.
4cc	.	.	.	8e-L	.	4A	.
.	.	8f#	.	8cJ	.	.	.
=16	=16	=16	=16	=16	=16	=16	=16
4.b-	.	4g	.	8dL	.	4G	.
.	.	.	.	8e-J	.	.	.
.	.	4.d	.	8fL	.	4F	.
8a	.	.	.	8FJ	.	.	.
4g	.	.	.	4G	.	4E-	.
.	.	8c	.	.	.	.	.
=17	=17	=17	=17	=17	=17	=17	=17
2f#;	-gen,	2d;	.	2A;	.	2D;	.
4a	Herr,	4f#	.	[4d	Herr,	4D	.
=18	=18	=18	=18	=18	=18	=18	=18
2b-	du	2g	.	8dL]	.	4.G	du
.	.	.	.	8B-J	.	.	.
.	.	.	.	4e-	du	.	.
.	.	.	.	.	.	8E-	.
4dd	wollst	4f	.	8dL	wollst	[4B-	wollst
.	.	.	.	8B-J	.	.	.
=19	=19	=19	=19	=19	=19	=19	=19
2cc	mir	8eL	.	4G	.	4B-]	.
.	.	8d	.	.	.	.	.
.	.	8e	.	8cL	.	4A	mir
.	.	8f#J	.	8AJ	.	.	.
4b-	bei-	4g	.	8B-L	.	4G	.
.	.	.	.	8dJ	.	.	.
=20	=20	=20	=20	=20	=20	=20	=20
2.a	-stah'n.	2g	.	8e-L	.	4C	.
.	.	.	.	8d	.	.	.
.	.	.	.	8c	.	4AA	.
.	.	.	.	8B-	.	.	.
.	.	4f#	.	8c	.	4D	.
.	.	.	.	8AJ	.	.	.
=21	=21	=21	=21	=21	=21	=21	=21
2g;	.	2d;	.	2Bn;	.	2GG;	.
==|!	==|!	==|!	==|!	==|!	==|!	==|!	==|!
*-	*-	*-	*-	*-	*-	*-	*-
!!!RWG: Key is interpreted using the Humdrum key tool.
!!!END: 1994/06/10
!!!EMD: Converted from MuseData to Humdrum Dec 19, 2000, by Andreas Kornstaedt using muse2kern.
!!!EED: Craig Stuart Sapp
!!!EEV: 2024/03/31
!!!ONB: Some non-unicode characters
